images/50872758.svg

<?xml version="1.0" encoding="UTF-8"?>
<svg xmlns="http://www.w3.org/2000/svg" xmlns:xlink="http://www.w3.org/1999/xlink" width="300pt" height="300pt" viewBox="0 0 300 300" version="1.1">
<defs>
<g>
<symbol overflow="visible" id="glyph0-0">
<path style="stroke:none;" d="M 0.453125 1.59375 L 0.453125 -6.34375 L 4.953125 -6.34375 L 4.953125 1.59375 Z M 0.953125 1.09375 L 4.453125 1.09375 L 4.453125 -5.84375 L 0.953125 -5.84375 Z M 0.953125 1.09375 "/>
</symbol>
<symbol overflow="visible" id="glyph0-1">
<path style="stroke:none;" d="M 4.8125 -6.34375 L 4.8125 -5.484375 C 4.476562 -5.640625 4.160156 -5.753906 3.859375 -5.828125 C 3.566406 -5.910156 3.28125 -5.953125 3 -5.953125 C 2.507812 -5.953125 2.132812 -5.859375 1.875 -5.671875 C 1.613281 -5.484375 1.484375 -5.21875 1.484375 -4.875 C 1.484375 -4.582031 1.570312 -4.363281 1.75 -4.21875 C 1.925781 -4.070312 2.253906 -3.953125 2.734375 -3.859375 L 3.28125 -3.75 C 3.9375 -3.625 4.421875 -3.398438 4.734375 -3.078125 C 5.054688 -2.765625 5.21875 -2.34375 5.21875 -1.8125 C 5.21875 -1.175781 5.003906 -0.691406 4.578125 -0.359375 C 4.148438 -0.0351562 3.523438 0.125 2.703125 0.125 C 2.390625 0.125 2.054688 0.0859375 1.703125 0.015625 C 1.359375 -0.046875 1 -0.148438 0.625 -0.296875 L 0.625 -1.203125 C 0.976562 -1.003906 1.328125 -0.851562 1.671875 -0.75 C 2.023438 -0.644531 2.367188 -0.59375 2.703125 -0.59375 C 3.203125 -0.59375 3.585938 -0.691406 3.859375 -0.890625 C 4.140625 -1.085938 4.28125 -1.375 4.28125 -1.75 C 4.28125 -2.070312 4.179688 -2.320312 3.984375 -2.5 C 3.785156 -2.675781 3.460938 -2.8125 3.015625 -2.90625 L 2.46875 -3.015625 C 1.8125 -3.148438 1.332031 -3.359375 1.03125 -3.640625 C 0.738281 -3.921875 0.59375 -4.3125 0.59375 -4.8125 C 0.59375 -5.382812 0.796875 -5.835938 1.203125 -6.171875 C 1.609375 -6.515625 2.171875 -6.6875 2.890625 -6.6875 C 3.203125 -6.6875 3.515625 -6.65625 3.828125 -6.59375 C 4.148438 -6.539062 4.476562 -6.457031 4.8125 -6.34375 Z M 4.8125 -6.34375 "/>
</symbol>
<symbol overflow="visible" id="glyph0-2">
<path style="stroke:none;" d="M 0.890625 -6.5625 L 2.078125 -6.5625 L 4.984375 -1.078125 L 4.984375 -6.5625 L 5.84375 -6.5625 L 5.84375 0 L 4.65625 0 L 1.75 -5.484375 L 1.75 0 L 0.890625 0 Z M 0.890625 -6.5625 "/>
</symbol>
<symbol overflow="visible" id="glyph0-3">
<path style="stroke:none;" d="M 0.890625 -6.5625 L 1.765625 -6.5625 L 1.765625 -3.875 L 5 -3.875 L 5 -6.5625 L 5.890625 -6.5625 L 5.890625 0 L 5 0 L 5 -3.125 L 1.765625 -3.125 L 1.765625 0 L 0.890625 0 Z M 0.890625 -6.5625 "/>
</symbol>
<symbol overflow="visible" id="glyph0-4">
<path style="stroke:none;" d="M 0.890625 -6.5625 L 4.65625 -6.5625 L 4.65625 -5.8125 L 1.765625 -5.8125 L 1.765625 -3.875 L 4.375 -3.875 L 4.375 -3.140625 L 1.765625 -3.140625 L 1.765625 0 L 0.890625 0 Z M 0.890625 -6.5625 "/>
</symbol>
</g>
</defs>
<g id="surface27145">
<rect x="0" y="0" width="300" height="300" style="fill:rgb(100%,100%,100%);fill-opacity:1;stroke:none;"/>
<path style="fill:none;stroke-width:1.2;stroke-linecap:butt;stroke-linejoin:miter;stroke:rgb(80%,80%,0%);stroke-opacity:1;stroke-miterlimit:10;" d="M 58.742188 149.707031 L 47.34375 153.046875 "/>
<path style="fill:none;stroke-width:1.2;stroke-linecap:butt;stroke-linejoin:miter;stroke:rgb(0%,0%,0%);stroke-opacity:1;stroke-miterlimit:10;" d="M 47.34375 153.046875 L 35.945312 156.382812 "/>
<path style="fill:none;stroke-width:1.2;stroke-linecap:butt;stroke-linejoin:miter;stroke:rgb(0%,0%,0%);stroke-opacity:1;stroke-miterlimit:10;" d="M 72.132812 169.324219 L 65.4375 159.515625 "/>
<path style="fill:none;stroke-width:1.2;stroke-linecap:butt;stroke-linejoin:miter;stroke:rgb(80%,80%,0%);stroke-opacity:1;stroke-miterlimit:10;" d="M 65.4375 159.515625 L 58.742188 149.707031 "/>
<path style=" stroke:none;fill-rule:nonzero;fill:rgb(100%,100%,100%);fill-opacity:1;" d="M 55.742188 144.207031 L 61.742188 144.207031 L 61.742188 155.207031 L 55.742188 155.207031 Z M 55.742188 144.207031 "/>
<g style="fill:rgb(80%,80%,0%);fill-opacity:1;">
  <use xlink:href="#glyph0-1" x="55.742188" y="152.870117"/>
</g>
<path style="fill:none;stroke-width:1.2;stroke-linecap:butt;stroke-linejoin:miter;stroke:rgb(0%,0%,0%);stroke-opacity:1;stroke-miterlimit:10;" d="M 35.945312 156.382812 L 35.25 180.128906 "/>
<path style="fill:none;stroke-width:1.2;stroke-linecap:butt;stroke-linejoin:miter;stroke:rgb(0%,0%,0%);stroke-opacity:1;stroke-miterlimit:10;" d="M 41.460938 158.921875 L 40.90625 177.917969 "/>
<path style="fill:none;stroke-width:1.2;stroke-linecap:butt;stroke-linejoin:miter;stroke:rgb(0%,0%,0%);stroke-opacity:1;stroke-miterlimit:10;" d="M 35.25 180.128906 L 57.617188 188.125 "/>
<path style="fill:none;stroke-width:1.2;stroke-linecap:butt;stroke-linejoin:miter;stroke:rgb(0%,0%,0%);stroke-opacity:1;stroke-miterlimit:10;" d="M 57.617188 188.125 L 72.132812 169.324219 "/>
<path style="fill:none;stroke-width:1.2;stroke-linecap:butt;stroke-linejoin:miter;stroke:rgb(0%,0%,0%);stroke-opacity:1;stroke-miterlimit:10;" d="M 54.644531 182.828125 L 66.257812 167.789062 "/>
<path style="fill:none;stroke-width:1.2;stroke-linecap:butt;stroke-linejoin:miter;stroke:rgb(0%,0%,0%);stroke-opacity:1;stroke-miterlimit:10;" d="M 72.132812 169.324219 L 95.878906 170.019531 "/>
<path style="fill:none;stroke-width:1.2;stroke-linecap:butt;stroke-linejoin:miter;stroke:rgb(0%,0%,0%);stroke-opacity:1;stroke-miterlimit:10;" d="M 95.878906 170.019531 L 101.511719 180.472656 "/>
<path style="fill:none;stroke-width:1.2;stroke-linecap:butt;stroke-linejoin:miter;stroke:rgb(0%,0%,100%);stroke-opacity:1;stroke-miterlimit:10;" d="M 101.511719 180.472656 L 107.148438 190.929688 "/>
<path style="fill:none;stroke-width:1.2;stroke-linecap:butt;stroke-linejoin:miter;stroke:rgb(0%,0%,100%);stroke-opacity:1;stroke-miterlimit:10;" d="M 107.148438 190.929688 L 119.019531 191.277344 "/>
<path style="fill:none;stroke-width:1.2;stroke-linecap:butt;stroke-linejoin:miter;stroke:rgb(0%,0%,0%);stroke-opacity:1;stroke-miterlimit:10;" d="M 119.019531 191.277344 L 130.890625 191.625 "/>
<path style=" stroke:none;fill-rule:nonzero;fill:rgb(100%,100%,100%);fill-opacity:1;" d="M 100.148438 185.429688 L 114.148438 185.429688 L 114.148438 196.429688 L 100.148438 196.429688 Z M 100.148438 185.429688 "/>
<g style="fill:rgb(0%,0%,100%);fill-opacity:1;">
  <use xlink:href="#glyph0-2" x="100.148438" y="194.092773"/>
  <use xlink:href="#glyph0-3" x="107.125977" y="194.092773"/>
</g>
<path style="fill:none;stroke-width:1.2;stroke-linecap:butt;stroke-linejoin:miter;stroke:rgb(0%,0%,0%);stroke-opacity:1;stroke-miterlimit:10;" d="M 130.890625 191.625 L 136.527344 202.078125 "/>
<path style="fill:none;stroke-width:1.2;stroke-linecap:butt;stroke-linejoin:miter;stroke:rgb(0%,0%,100%);stroke-opacity:1;stroke-miterlimit:10;" d="M 136.527344 202.078125 L 142.160156 212.53125 "/>
<path style="fill:none;stroke-width:1.2;stroke-linecap:butt;stroke-linejoin:miter;stroke:rgb(0%,0%,0%);stroke-opacity:1;stroke-miterlimit:10;" d="M 136.9375 191.0625 L 141.445312 199.425781 "/>
<path style="fill:none;stroke-width:1.2;stroke-linecap:butt;stroke-linejoin:miter;stroke:rgb(0%,0%,100%);stroke-opacity:1;stroke-miterlimit:10;" d="M 141.445312 199.425781 L 145.953125 207.789062 "/>
<path style="fill:none;stroke-width:1.2;stroke-linecap:butt;stroke-linejoin:miter;stroke:rgb(0%,0%,0%);stroke-opacity:1;stroke-miterlimit:10;" d="M 143.363281 171.410156 L 130.890625 191.625 "/>
<path style="fill:none;stroke-width:1.2;stroke-linecap:butt;stroke-linejoin:miter;stroke:rgb(0%,0%,100%);stroke-opacity:1;stroke-miterlimit:10;" d="M 142.160156 212.53125 L 154.03125 212.878906 "/>
<path style="fill:none;stroke-width:1.2;stroke-linecap:butt;stroke-linejoin:miter;stroke:rgb(0%,0%,0%);stroke-opacity:1;stroke-miterlimit:10;" d="M 154.03125 212.878906 L 165.902344 213.226562 "/>
<path style=" stroke:none;fill-rule:nonzero;fill:rgb(100%,100%,100%);fill-opacity:1;" d="M 139.160156 207.03125 L 146.160156 207.03125 L 146.160156 218.03125 L 139.160156 218.03125 Z M 139.160156 207.03125 "/>
<g style="fill:rgb(0%,0%,100%);fill-opacity:1;">
  <use xlink:href="#glyph0-2" x="139.160156" y="215.694336"/>
</g>
<path style="fill:none;stroke-width:1.2;stroke-linecap:butt;stroke-linejoin:miter;stroke:rgb(0%,0%,0%);stroke-opacity:1;stroke-miterlimit:10;" d="M 165.902344 213.226562 L 178.375 193.011719 "/>
<path style="fill:none;stroke-width:1.2;stroke-linecap:butt;stroke-linejoin:miter;stroke:rgb(0%,0%,0%);stroke-opacity:1;stroke-miterlimit:10;" d="M 162.394531 208.269531 L 172.375 192.097656 "/>
<path style="fill:none;stroke-width:1.2;stroke-linecap:butt;stroke-linejoin:miter;stroke:rgb(0%,0%,0%);stroke-opacity:1;stroke-miterlimit:10;" d="M 178.375 193.011719 L 167.105469 172.101562 "/>
<path style="fill:none;stroke-width:1.2;stroke-linecap:butt;stroke-linejoin:miter;stroke:rgb(0%,0%,0%);stroke-opacity:1;stroke-miterlimit:10;" d="M 167.105469 172.101562 L 143.363281 171.410156 "/>
<path style="fill:none;stroke-width:1.2;stroke-linecap:butt;stroke-linejoin:miter;stroke:rgb(0%,0%,0%);stroke-opacity:1;stroke-miterlimit:10;" d="M 164.570312 177.621094 L 145.574219 177.066406 "/>
<path style="fill:none;stroke-width:1.2;stroke-linecap:butt;stroke-linejoin:miter;stroke:rgb(0%,0%,0%);stroke-opacity:1;stroke-miterlimit:10;" d="M 167.105469 172.101562 L 179.578125 151.886719 "/>
<path style="fill:none;stroke-width:1.2;stroke-linecap:butt;stroke-linejoin:miter;stroke:rgb(0%,0%,0%);stroke-opacity:1;stroke-miterlimit:10;" d="M 179.578125 151.886719 L 175.070312 140.902344 "/>
<path style="fill:none;stroke-width:1.2;stroke-linecap:butt;stroke-linejoin:miter;stroke:rgb(0%,0%,100%);stroke-opacity:1;stroke-miterlimit:10;" d="M 175.070312 140.902344 L 170.558594 129.914062 "/>
<path style="fill:none;stroke-width:1.2;stroke-linecap:butt;stroke-linejoin:miter;stroke:rgb(0%,0%,0%);stroke-opacity:1;stroke-miterlimit:10;" d="M 203.265625 150.097656 L 179.578125 151.886719 "/>
<path style="fill:none;stroke-width:1.2;stroke-linecap:butt;stroke-linejoin:miter;stroke:rgb(0%,0%,0%);stroke-opacity:1;stroke-miterlimit:10;" d="M 200.476562 144.703125 L 181.527344 146.136719 "/>
<path style="fill:none;stroke-width:1.2;stroke-linecap:butt;stroke-linejoin:miter;stroke:rgb(0%,0%,100%);stroke-opacity:1;stroke-miterlimit:10;" d="M 170.558594 129.914062 L 179.613281 122.230469 "/>
<path style="fill:none;stroke-width:1.2;stroke-linecap:butt;stroke-linejoin:miter;stroke:rgb(0%,0%,0%);stroke-opacity:1;stroke-miterlimit:10;" d="M 179.613281 122.230469 L 188.667969 114.542969 "/>
<path style="fill:none;stroke-width:1.2;stroke-linecap:butt;stroke-linejoin:miter;stroke:rgb(0%,0%,100%);stroke-opacity:1;stroke-miterlimit:10;" d="M 175.984375 132.640625 L 183.230469 126.492188 "/>
<path style="fill:none;stroke-width:1.2;stroke-linecap:butt;stroke-linejoin:miter;stroke:rgb(0%,0%,0%);stroke-opacity:1;stroke-miterlimit:10;" d="M 183.230469 126.492188 L 190.472656 120.34375 "/>
<path style=" stroke:none;fill-rule:nonzero;fill:rgb(100%,100%,100%);fill-opacity:1;" d="M 167.558594 124.414062 L 174.558594 124.414062 L 174.558594 135.414062 L 167.558594 135.414062 Z M 167.558594 124.414062 "/>
<g style="fill:rgb(0%,0%,100%);fill-opacity:1;">
  <use xlink:href="#glyph0-2" x="167.558594" y="133.077148"/>
</g>
<path style="fill:none;stroke-width:1.2;stroke-linecap:butt;stroke-linejoin:miter;stroke:rgb(0%,0%,0%);stroke-opacity:1;stroke-miterlimit:10;" d="M 188.667969 114.542969 L 187.769531 102.703125 "/>
<path style="fill:none;stroke-width:1.2;stroke-linecap:butt;stroke-linejoin:miter;stroke:rgb(80%,80%,0%);stroke-opacity:1;stroke-miterlimit:10;" d="M 187.769531 102.703125 L 186.875 90.859375 "/>
<path style="fill:none;stroke-width:1.2;stroke-linecap:butt;stroke-linejoin:miter;stroke:rgb(0%,0%,0%);stroke-opacity:1;stroke-miterlimit:10;" d="M 188.667969 114.542969 L 198.773438 120.78125 "/>
<path style="fill:none;stroke-width:1.2;stroke-linecap:butt;stroke-linejoin:miter;stroke:rgb(0%,0%,100%);stroke-opacity:1;stroke-miterlimit:10;" d="M 198.773438 120.78125 L 208.882812 127.019531 "/>
<path style="fill:none;stroke-width:1.2;stroke-linecap:butt;stroke-linejoin:miter;stroke:rgb(80%,80%,0%);stroke-opacity:1;stroke-miterlimit:10;" d="M 186.875 90.859375 L 196.683594 84.160156 "/>
<path style="fill:none;stroke-width:1.2;stroke-linecap:butt;stroke-linejoin:miter;stroke:rgb(0%,0%,0%);stroke-opacity:1;stroke-miterlimit:10;" d="M 196.683594 84.160156 L 206.492188 77.464844 "/>
<path style=" stroke:none;fill-rule:nonzero;fill:rgb(100%,100%,100%);fill-opacity:1;" d="M 183.875 85.359375 L 189.875 85.359375 L 189.875 96.359375 L 183.875 96.359375 Z M 183.875 85.359375 "/>
<g style="fill:rgb(80%,80%,0%);fill-opacity:1;">
  <use xlink:href="#glyph0-1" x="183.875" y="94.022461"/>
</g>
<path style="fill:none;stroke-width:1.2;stroke-linecap:butt;stroke-linejoin:miter;stroke:rgb(0%,0%,100%);stroke-opacity:1;stroke-miterlimit:10;" d="M 208.882812 127.019531 L 206.074219 138.558594 "/>
<path style="fill:none;stroke-width:1.2;stroke-linecap:butt;stroke-linejoin:miter;stroke:rgb(0%,0%,0%);stroke-opacity:1;stroke-miterlimit:10;" d="M 206.074219 138.558594 L 203.265625 150.097656 "/>
<path style=" stroke:none;fill-rule:nonzero;fill:rgb(100%,100%,100%);fill-opacity:1;" d="M 201.882812 121.519531 L 215.882812 121.519531 L 215.882812 132.519531 L 201.882812 132.519531 Z M 201.882812 121.519531 "/>
<g style="fill:rgb(0%,0%,100%);fill-opacity:1;">
  <use xlink:href="#glyph0-2" x="201.882812" y="130.182617"/>
  <use xlink:href="#glyph0-3" x="208.860352" y="130.182617"/>
</g>
<path style="fill:none;stroke-width:1.2;stroke-linecap:butt;stroke-linejoin:miter;stroke:rgb(0%,0%,0%);stroke-opacity:1;stroke-miterlimit:10;" d="M 203.265625 150.097656 L 218.636719 168.207031 "/>
<path style="fill:none;stroke-width:1.2;stroke-linecap:butt;stroke-linejoin:miter;stroke:rgb(0%,0%,0%);stroke-opacity:1;stroke-miterlimit:10;" d="M 218.636719 168.207031 L 210.640625 190.574219 "/>
<path style="fill:none;stroke-width:1.2;stroke-linecap:butt;stroke-linejoin:miter;stroke:rgb(0%,0%,0%);stroke-opacity:1;stroke-miterlimit:10;" d="M 223.101562 172.324219 L 216.703125 190.21875 "/>
<path style="fill:none;stroke-width:1.2;stroke-linecap:butt;stroke-linejoin:miter;stroke:rgb(0%,0%,0%);stroke-opacity:1;stroke-miterlimit:10;" d="M 242.003906 163.949219 L 218.636719 168.207031 "/>
<path style="fill:none;stroke-width:1.2;stroke-linecap:butt;stroke-linejoin:miter;stroke:rgb(0%,0%,0%);stroke-opacity:1;stroke-miterlimit:10;" d="M 210.640625 190.574219 L 226.011719 208.683594 "/>
<path style="fill:none;stroke-width:1.2;stroke-linecap:butt;stroke-linejoin:miter;stroke:rgb(0%,0%,0%);stroke-opacity:1;stroke-miterlimit:10;" d="M 226.011719 208.683594 L 249.378906 204.425781 "/>
<path style="fill:none;stroke-width:1.2;stroke-linecap:butt;stroke-linejoin:miter;stroke:rgb(0%,0%,0%);stroke-opacity:1;stroke-miterlimit:10;" d="M 227.34375 202.757812 L 246.039062 199.351562 "/>
<path style="fill:none;stroke-width:1.2;stroke-linecap:butt;stroke-linejoin:miter;stroke:rgb(0%,0%,0%);stroke-opacity:1;stroke-miterlimit:10;" d="M 249.378906 204.425781 L 257.066406 213.480469 "/>
<path style="fill:none;stroke-width:1.2;stroke-linecap:butt;stroke-linejoin:miter;stroke:rgb(20%,80%,80%);stroke-opacity:1;stroke-miterlimit:10;" d="M 257.066406 213.480469 L 264.75 222.535156 "/>
<path style="fill:none;stroke-width:1.2;stroke-linecap:butt;stroke-linejoin:miter;stroke:rgb(0%,0%,0%);stroke-opacity:1;stroke-miterlimit:10;" d="M 249.378906 204.425781 L 257.375 182.058594 "/>
<path style=" stroke:none;fill-rule:nonzero;fill:rgb(100%,100%,100%);fill-opacity:1;" d="M 261.75 217.035156 L 267.75 217.035156 L 267.75 228.035156 L 261.75 228.035156 Z M 261.75 217.035156 "/>
<g style="fill:rgb(20%,80%,80%);fill-opacity:1;">
  <use xlink:href="#glyph0-4" x="261.75" y="225.698242"/>
</g>
<path style="fill:none;stroke-width:1.2;stroke-linecap:butt;stroke-linejoin:miter;stroke:rgb(0%,0%,0%);stroke-opacity:1;stroke-miterlimit:10;" d="M 257.375 182.058594 L 242.003906 163.949219 "/>
<path style="fill:none;stroke-width:1.2;stroke-linecap:butt;stroke-linejoin:miter;stroke:rgb(0%,0%,0%);stroke-opacity:1;stroke-miterlimit:10;" d="M 251.578125 183.863281 L 239.28125 169.378906 "/>
</g>
</svg>

<svg xmlns="http://www.w3.org/2000/svg" xmlns:xlink="http://www.w3.org/1999/xlink" width="300pt" height="300pt" viewBox="0 0 300 300"><defs><symbol overflow="visible"><path d="M.453 1.594v-7.938h4.5v7.938zm.5-.5h3.5v-6.938h-3.5zm0 0"/></symbol><symbol overflow="visible" id="a"><path d="M4.813-6.344v.86c-.336-.157-.653-.27-.954-.344-.294-.082-.58-.125-.86-.125-.492 0-.867.094-1.125.28-.262.19-.39.454-.39.798 0 .293.085.512.265.656.176.15.504.267.984.36l.547.11c.658.125 1.142.352 1.454.672.32.312.485.734.485 1.265 0 .637-.216 1.122-.642 1.454-.43.325-1.055.485-1.875.485-.312 0-.648-.04-1-.11C1.36-.046 1-.147.625-.296v-.906c.352.2.703.35 1.047.453.35.105.695.156 1.03.156.5 0 .884-.097 1.157-.297.28-.196.42-.485.42-.86 0-.32-.1-.57-.296-.75-.2-.176-.523-.313-.968-.406l-.547-.11C1.81-3.148 1.33-3.36 1.03-3.64.74-3.923.595-4.313.595-4.813c0-.57.203-1.024.61-1.36.405-.344.968-.516 1.687-.516.313 0 .626.032.938.094.32.055.65.137.985.25zm0 0"/></symbol><symbol overflow="visible" id="b"><path d="M.89-6.563H2.08l2.906 5.485v-5.484h.86V0H4.656L1.75-5.484V0H.89zm0 0"/></symbol><symbol overflow="visible" id="c"><path d="M.89-6.563h.876v2.688H5v-2.688h.89V0H5v-3.125H1.766V0H.89zm0 0"/></symbol><symbol overflow="visible" id="d"><path d="M.89-6.563h3.766v.75h-2.89v1.938h2.61v.734h-2.61V0H.89zm0 0"/></symbol></defs><g><path fill="#fff" d="M0 0h300v300H0z"/><path d="M58.742 149.707l-11.398 3.34" stroke-width="1.2" stroke="#cc0" stroke-miterlimit="10" fill="none"/><path d="M47.344 153.047l-11.4 3.336M72.133 169.324l-6.695-9.808" stroke-width="1.2" stroke="#000" stroke-miterlimit="10" fill="none"/><path d="M65.438 159.516l-6.696-9.81" stroke-width="1.2" stroke="#cc0" stroke-miterlimit="10" fill="none"/><path d="M55.742 144.207h6v11h-6zm0 0" fill="#fff"/><use xlink:href="#a" x="55.742" y="152.87" fill="#cc0"/><path d="M35.945 156.383l-.695 23.746M41.46 158.922l-.554 18.996M35.25 180.13l22.367 7.995M57.617 188.125l14.516-18.8M54.645 182.828l11.613-15.04M72.133 169.324l23.746.696M95.88 170.02l5.632 10.453" stroke-width="1.2" stroke="#000" stroke-miterlimit="10" fill="none"/><path d="M101.512 180.473l5.636 10.457M107.148 190.93l11.872.347" stroke-width="1.2" stroke="#00f" stroke-miterlimit="10" fill="none"/><path d="M119.02 191.277l11.87.348" stroke-width="1.2" stroke="#000" stroke-miterlimit="10" fill="none"/><path d="M100.148 185.43h14v11h-14zm0 0" fill="#fff"/><g fill="#00f"><use xlink:href="#b" x="100.148" y="194.093"/><use xlink:href="#c" x="107.126" y="194.093"/></g><path d="M130.89 191.625l5.637 10.453" stroke-width="1.2" stroke="#000" stroke-miterlimit="10" fill="none"/><path d="M136.527 202.078l5.633 10.453" stroke-width="1.2" stroke="#00f" stroke-miterlimit="10" fill="none"/><path d="M136.938 191.063l4.507 8.363" stroke-width="1.2" stroke="#000" stroke-miterlimit="10" fill="none"/><path d="M141.445 199.426l4.508 8.363" stroke-width="1.2" stroke="#00f" stroke-miterlimit="10" fill="none"/><path d="M143.363 171.41l-12.472 20.215" stroke-width="1.2" stroke="#000" stroke-miterlimit="10" fill="none"/><path d="M142.16 212.53l11.87.35" stroke-width="1.2" stroke="#00f" stroke-miterlimit="10" fill="none"/><path d="M154.03 212.88l11.872.347" stroke-width="1.2" stroke="#000" stroke-miterlimit="10" fill="none"/><path d="M139.16 207.03h7v11h-7zm0 0" fill="#fff"/><use xlink:href="#b" x="139.16" y="215.694" fill="#00f"/><path d="M165.902 213.227l12.473-20.215M162.395 208.27l9.98-16.172M178.375 193.012l-11.27-20.91M167.105 172.102l-23.742-.692M164.57 177.62l-18.996-.554M167.105 172.102l12.473-20.215M179.578 151.887l-4.508-10.985" stroke-width="1.2" stroke="#000" stroke-miterlimit="10" fill="none"/><path d="M175.07 140.902l-4.51-10.988" stroke-width="1.2" stroke="#00f" stroke-miterlimit="10" fill="none"/><path d="M203.266 150.098l-23.688 1.79M200.477 144.703l-18.95 1.434" stroke-width="1.2" stroke="#000" stroke-miterlimit="10" fill="none"/><path d="M170.56 129.914l9.053-7.684" stroke-width="1.2" stroke="#00f" stroke-miterlimit="10" fill="none"/><path d="M179.613 122.23l9.055-7.687" stroke-width="1.2" stroke="#000" stroke-miterlimit="10" fill="none"/><path d="M175.984 132.64l7.246-6.148" stroke-width="1.2" stroke="#00f" stroke-miterlimit="10" fill="none"/><path d="M183.23 126.492l7.243-6.148" stroke-width="1.2" stroke="#000" stroke-miterlimit="10" fill="none"/><path d="M167.56 124.414h7v11h-7zm0 0" fill="#fff"/><use xlink:href="#b" x="167.559" y="133.077" fill="#00f"/><path d="M188.668 114.543l-.898-11.84" stroke-width="1.2" stroke="#000" stroke-miterlimit="10" fill="none"/><path d="M187.77 102.703l-.895-11.844" stroke-width="1.2" stroke="#cc0" stroke-miterlimit="10" fill="none"/><path d="M188.668 114.543l10.105 6.238" stroke-width="1.2" stroke="#000" stroke-miterlimit="10" fill="none"/><path d="M198.773 120.78l10.11 6.24" stroke-width="1.2" stroke="#00f" stroke-miterlimit="10" fill="none"/><path d="M186.875 90.86l9.81-6.7" stroke-width="1.2" stroke="#cc0" stroke-miterlimit="10" fill="none"/><path d="M196.684 84.16l9.808-6.695" stroke-width="1.2" stroke="#000" stroke-miterlimit="10" fill="none"/><path d="M183.875 85.36h6v11h-6zm0 0" fill="#fff"/><use xlink:href="#a" x="183.875" y="94.022" fill="#cc0"/><path d="M208.883 127.02l-2.81 11.54" stroke-width="1.2" stroke="#00f" stroke-miterlimit="10" fill="none"/><path d="M206.074 138.56l-2.808 11.538" stroke-width="1.2" stroke="#000" stroke-miterlimit="10" fill="none"/><path d="M201.883 121.52h14v11h-14zm0 0" fill="#fff"/><g fill="#00f"><use xlink:href="#b" x="201.883" y="130.183"/><use xlink:href="#c" x="208.86" y="130.183"/></g><path d="M203.266 150.098l15.37 18.11M218.637 168.207l-7.996 22.367M223.102 172.324l-6.4 17.895M242.004 163.95l-23.367 4.257M210.64 190.574l15.372 18.11M226.012 208.684l23.367-4.258M227.344 202.758l18.695-3.406M249.38 204.426l7.686 9.054" stroke-width="1.2" stroke="#000" stroke-miterlimit="10" fill="none"/><path d="M257.066 213.48l7.684 9.055" stroke-width="1.2" stroke="#3cc" stroke-miterlimit="10" fill="none"/><path d="M249.38 204.426l7.995-22.367" stroke-width="1.2" stroke="#000" stroke-miterlimit="10" fill="none"/><path d="M261.75 217.035h6v11h-6zm0 0" fill="#fff"/><use xlink:href="#d" x="261.75" y="225.698" fill="#3cc"/><path d="M257.375 182.06l-15.37-18.11M251.578 183.863L239.28 169.38" stroke-width="1.2" stroke="#000" stroke-miterlimit="10" fill="none"/></g></svg>
